projects/oblique/icons/Clipboard.svg

<?xml version="1.0" encoding="UTF-8"?><svg id="a" xmlns="http://www.w3.org/2000/svg" viewBox="0 0 24 24"><path d="M14.42676,2.84595v-.96387h-1.26965c-.24652-.37939-.67212-.63184-1.1571-.63184s-.91058.25244-1.1571.63184h-1.26965v.96387H3.25v19.9043h17.5V2.84595h-6.32324ZM12.92676,3.81763h-1.85352v-.43555h1.8501l.00342.43555ZM19.25,21.25025H4.75V4.34595h4.82324v.97168h4.85352v-.97168h4.82324v16.9043Z"/></svg>

<svg xmlns="http://www.w3.org/2000/svg" viewBox="0 0 24 24"><title>Clipboard</title><path d="M14.42676,2.846V1.88208H13.1571a1.37544,1.37544,0,0,0-2.3142,0H9.57324V2.846H3.25v19.9043h17.5V2.846Zm-1.5.97168H11.07324V3.38208h1.8501ZM19.25,21.25025H4.75V4.346H9.57324v.97168h4.85352V4.346H19.25Z" fill="#171717"/></svg>
